frontend/public/svg/files/file-spreadsheet.svg

<svg width="143" height="175" viewBox="0 0 143 175" fill="none" xmlns="http://www.w3.org/2000/svg">
<g clip-path="url(#clip0)">
<path d="M141.313 100.665C141.429 114.351 141.614 128.034 141.63 141.723C141.637 147.776 141.213 153.829 141.142 159.884C141.048 167.883 134.933 173.142 127.181 173.311C108.548 173.719 89.9074 174.069 71.2707 174.019C56.1132 173.979 40.9551 173.404 25.8029 172.896C21.5427 172.68 17.2985 172.22 13.0909 171.519C7.84022 170.736 3.0181 164.642 2.78641 158.88C1.76121 133.205 1.58334 107.516 1.5013 81.8256C1.44047 62.4127 1.25713 43.0005 0.951277 23.5886C0.89155 19.5194 0.858077 15.5199 2.28955 11.6554C4.21656 6.45456 6.93973 2.55217 15.0114 2.23975C40.2686 1.26246 65.5185 0.501446 90.7895 1.67892C93.4805 1.80362 96.1774 1.91918 98.8625 1.84108C99.8726 1.81249 100.878 1.98595 101.821 2.35064C102.763 2.71532 103.623 3.26412 104.351 3.9652C114.676 13.129 124.966 22.3326 135.35 31.4295C138.238 33.9609 139.759 36.8906 139.823 40.7644C140.156 60.7334 140.58 80.7006 140.972 100.668L141.313 100.665ZM93.8067 9.98952C91.8436 9.83332 90.185 9.61206 88.5238 9.58384C74.3798 9.34494 60.2355 9.12841 46.0909 8.93321C39.6969 8.84461 33.3015 8.80851 26.9068 8.76913C23.658 8.74944 20.4019 8.64731 17.1609 8.81402C12.6321 9.04637 11.2276 10.342 10.4137 14.7723C9.59606 18.9615 9.40336 23.2485 9.84205 27.494C10.1039 29.8344 10.2365 32.1876 10.2391 34.5426C10.3087 74.2508 10.3623 113.959 10.3999 153.668C10.3707 154.565 10.4122 155.463 10.524 156.353C11.3529 161.473 14.0485 164.548 19.6405 164.774C41.3043 165.648 62.9687 165.643 84.6396 165.275C95.6405 165.089 106.643 165.001 117.646 164.881C120.337 164.85 123.035 164.958 125.718 164.811C130.127 164.569 132.447 162.143 132.399 157.689C132.347 152.873 131.977 148.061 131.899 143.244C131.803 137.413 131.998 131.575 131.833 125.746C131.429 111.397 130.736 97.0552 130.455 82.7044C130.233 71.2677 130.455 59.8222 130.474 48.3783C130.474 47.4062 130.474 46.4343 130.474 45.4465C130.055 45.3449 129.628 45.274 129.198 45.235C122.352 45.3715 115.507 45.5865 108.66 45.6292C106.529 45.6466 104.405 45.4038 102.333 44.9068C98.0926 43.8692 96.7615 42.2449 96.3152 37.9249C95.9122 34.023 95.6497 30.1065 95.2985 26.1986C94.8312 20.9519 94.3364 15.7135 93.8067 9.98631V9.98952ZM126.062 36.2834L103.14 15.496L102.611 15.8588C103.706 23.0128 104.802 30.1625 105.927 37.5134L126.062 36.2834Z" fill="black"/>
<path d="M69.6843 152.343C55.4242 152.086 41.1643 151.822 26.9042 151.556C25.3359 151.481 23.7727 151.323 22.2212 151.081C20.1413 150.819 19.0465 149.549 18.8247 147.515C18.6791 146.405 18.6065 145.287 18.6074 144.167C19.0122 126.9 19.4279 109.632 19.8545 92.3641C19.9162 89.6928 19.8262 87.0175 19.7816 84.3449C19.7527 82.6076 20.8009 81.9513 22.3131 81.8416C25.8941 81.5791 29.4757 81.2687 33.0626 81.1656C49.897 80.6793 66.7367 80.3636 83.5665 79.7624C91.1886 79.4906 98.7903 78.6696 106.407 78.1543C109.205 77.9647 112.015 77.8419 114.819 77.8629C117.779 77.8846 119.467 79.15 120.208 81.9749C120.69 83.9334 121.011 85.928 121.167 87.9384C121.599 92.624 122.099 97.3135 122.244 102.012C122.631 114.569 122.858 127.133 123.117 139.694C123.165 142.048 123.133 144.409 123.016 146.761C122.841 150.306 121.576 151.887 118.138 152.631C116.277 153.049 114.374 153.25 112.466 153.23C100.455 152.98 88.4398 152.624 76.4269 152.327C74.1822 152.271 71.9355 152.319 69.6896 152.319L69.6843 152.343ZM48.5115 99.2871C40.4884 99.0167 32.7975 98.8001 24.8308 99.4131C25.0934 114.968 25.3506 130.254 25.6099 145.62H46.3174C47.0452 130.248 47.7639 115.065 48.5115 99.2871ZM54.769 93.3138C56.3501 93.3138 57.46 93.3138 58.5672 93.3138C69.3528 93.3177 80.1385 93.3216 90.9247 93.3249C96.6545 93.3249 102.384 93.3486 108.113 93.2731C109.84 93.2501 111.563 92.9265 113.369 92.7323C113.074 89.866 112.826 87.4566 112.588 85.1502L54.2183 86.6093C54.3916 88.7312 54.5629 90.8138 54.769 93.3138ZM48.4505 86.5909C43.6001 85.9464 26.6745 86.1604 24.2795 86.8744C24.4108 89.2563 24.5466 91.6657 24.6805 94.0633L48.4505 93.2534V86.5909ZM95.5972 145.133V137.632C88.722 137.441 82.0904 137.325 75.4607 137.578V145.133H95.5972ZM95.0721 131.028V124.622C88.4792 124.738 82.1705 124.433 75.7686 125.201C75.6543 127.433 75.5546 129.382 75.4404 131.621L95.0721 131.028ZM76.0849 118.637H94.8161V112.496H76.0823L76.0849 118.637ZM76.06 106.216H94.9343V100.079H76.0573L76.06 106.216ZM54.8091 112.149C54.4471 114.999 54.4484 117.884 54.813 120.735L69.5196 119.371C69.6994 116.788 69.8517 114.611 70.023 112.151L54.8091 112.149ZM70.0939 99.7137H55.0755V106.634H70.0912L70.0939 99.7137ZM69.1586 145.118C68.9951 142.54 68.8508 140.266 68.7057 137.982H54.4514V145.118H69.1586ZM114.084 137.57H101.711V145.224C106.043 145.224 110.172 145.235 114.303 145.207C114.726 145.14 115.137 145.012 115.523 144.826C115.023 142.313 114.552 139.939 114.082 137.572L114.084 137.57ZM68.8685 131.828C69.0595 129.496 69.2176 127.562 69.4106 125.199L54.6627 125.887V132.66L68.8685 131.828ZM113.342 106.377V100.358H99.7997V106.377H113.342ZM101.246 130.877C105.588 131.19 109.952 130.925 114.223 130.089C114.105 127.989 114.002 126.137 113.881 123.985L100.812 124.767C100.971 127.035 101.103 128.888 101.244 130.878L101.246 130.877ZM100.365 118.216H113.369V112.742H100.032C100.146 114.645 100.246 116.3 100.362 118.217L100.365 118.216Z" fill="black"/>
</g>
<defs>
<clipPath id="clip0">
<rect width="141.769" height="173.93" fill="white" transform="translate(0.303467 0.574219)"/>
</clipPath>
</defs>
</svg>

<svg xmlns="http://www.w3.org/2000/svg" width="143" height="175" fill="none" viewBox="0 0 143 175"><g fill="#000" clip-path="url(#a)"><path d="M141.313 100.665c.116 13.686.301 27.369.317 41.058.007 6.053-.417 12.106-.488 18.161-.094 7.999-6.209 13.258-13.961 13.427-18.633.408-37.274.758-55.91.708-15.158-.04-30.316-.615-45.468-1.123-4.26-.216-8.504-.676-12.712-1.377-5.25-.783-10.073-6.877-10.305-12.639-1.025-25.675-1.203-51.364-1.285-77.054q-.09-29.12-.55-58.237c-.06-4.07-.093-8.07 1.339-11.934 1.927-5.2 4.65-9.103 12.721-9.415C40.27 1.262 65.52.5 90.79 1.679c2.69.125 5.387.24 8.072.162a7.6 7.6 0 0 1 5.489 2.124c10.325 9.164 20.615 18.368 30.999 27.465 2.888 2.53 4.409 5.46 4.473 9.334.333 19.97.757 39.937 1.149 59.904zM93.807 9.99c-1.963-.157-3.622-.378-5.283-.406a13736 13736 0 0 0-42.433-.65c-6.394-.09-12.79-.125-19.184-.165-3.249-.02-6.505-.122-9.746.045-4.529.232-5.933 1.528-6.747 5.958a43.2 43.2 0 0 0-.572 12.722 64 64 0 0 1 .397 7.049q.105 59.562.16 119.125c-.028.897.013 1.795.125 2.685.829 5.12 3.525 8.195 9.117 8.421 21.663.874 43.328.869 64.999.501 11-.186 22.003-.274 33.006-.394 2.691-.031 5.389.077 8.072-.07 4.409-.242 6.729-2.668 6.681-7.122-.052-4.816-.422-9.628-.5-14.445-.096-5.831.099-11.669-.066-17.498-.404-14.349-1.097-28.69-1.378-43.042-.222-11.436 0-22.882.019-34.326v-2.931a9 9 0 0 0-1.276-.212c-6.846.136-13.691.352-20.538.394a26.2 26.2 0 0 1-6.327-.722c-4.24-1.038-5.571-2.662-6.018-6.982-.403-3.902-.665-7.818-1.016-11.726-.468-5.247-.963-10.486-1.492-16.213zm32.255 26.293L103.14 15.496l-.529.363 3.316 21.654z"/><path d="M69.684 152.343q-21.39-.387-42.78-.787a44 44 0 0 1-4.683-.475c-2.08-.262-3.174-1.532-3.396-3.566a26 26 0 0 1-.218-3.348q.607-25.9 1.248-51.803c.061-2.671-.029-5.347-.073-8.02-.03-1.736 1.019-2.393 2.531-2.502 3.581-.263 7.163-.573 10.75-.676 16.834-.487 33.674-.802 50.504-1.404 7.622-.271 15.223-1.092 22.84-1.608 2.798-.19 5.608-.312 8.412-.291 2.96.022 4.648 1.287 5.389 4.112.482 1.958.803 3.953.959 5.963.432 4.686.932 9.376 1.077 14.074.387 12.557.614 25.121.873 37.682.048 2.354.016 4.715-.101 7.067-.175 3.545-1.44 5.126-4.878 5.87a24.7 24.7 0 0 1-5.672.599c-12.011-.25-24.026-.606-36.04-.903-2.244-.056-4.49-.008-6.736-.008zM48.512 99.287c-8.024-.27-15.715-.487-23.681.126l.779 46.207h20.707zm6.257-5.973h3.798q16.178.006 32.358.01c5.73 0 11.459.025 17.188-.05 1.727-.024 3.45-.347 5.256-.542l-.781-7.582-58.37 1.46zm-6.318-6.723c-4.85-.645-21.777-.43-24.171.283.13 2.382.267 4.792.4 7.19l23.77-.81zm47.146 58.542v-7.501c-6.875-.191-13.507-.307-20.136-.054v7.555zm-.525-14.105v-6.406c-6.593.116-12.901-.189-19.303.579l-.329 6.42zm-18.987-12.391h18.731v-6.141H76.082zm-.025-12.421h18.874v-6.137H76.057zm-21.25 5.933a34 34 0 0 0 .003 8.586l14.707-1.364.503-7.22zm15.284-12.435H55.076v6.92H70.09zm-.935 45.404-.453-7.136H54.45v7.136zm44.925-7.548h-12.373v7.654c4.332 0 8.461.011 12.592-.017a4.4 4.4 0 0 0 1.22-.381l-1.441-7.254zm-45.216-5.742.543-6.629-14.748.688v6.773zm44.474-25.451v-6.019H99.8v6.019zm-12.096 24.5c4.342.313 8.706.048 12.977-.788l-.342-6.104-13.069.782c.159 2.268.291 4.121.432 6.111zm-.881-12.661h13.004v-5.474h-13.337l.33 5.475z"/></g><defs><clipPath id="a"><path fill="#fff" d="M.303.574h141.77v173.93H.302z"/></clipPath></defs></svg>
